svgs/sharp-light/toggle-large-off.svg

<svg xmlns="http://www.w3.org/2000/svg" viewBox="0 0 576 512"><!--! Font Awesome Pro 6.6.0 by @fontawesome - https://fontawesome.com License - https://fontawesome.com/license (Commercial License) Copyright 2024 Fonticons, Inc. --><path d="M32 128l256 0 0 256L32 384l0-256zM288 416l32 0 224 0 32 0 0-32 0-256 0-32-32 0L320 96l-32 0L32 96 0 96l0 32L0 384l0 32 32 0 256 0zm32-32l0-256 224 0 0 256-224 0zM96 192l128 0 0 128L96 320l0-128zM64 160l0 32 0 128 0 32 32 0 128 0 32 0 0-32 0-128 0-32-32 0L96 160l-32 0z"/></svg>

<svg xmlns="http://www.w3.org/2000/svg" viewBox="0 0 576 512"><!--! Font Awesome Pro 6.4.2 by @fontawesome - https://fontawesome.com License - https://fontawesome.com/license (Commercial License) Copyright 2023 Fonticons, Inc. --><path d="M32 128H288V384H32V128zM288 416h32H544h32V384 128 96H544 320 288 32 0v32V384v32H32 288zm32-32V128H544V384H320zM96 192H224V320H96V192zM64 160v32V320v32H96 224h32V320 192 160H224 96 64z"/></svg>
